packages/kaspersky-hexa-ui-icons/src/iconsSVGs/24/EmojiHappy.svg

<svg width="24" height="24" viewBox="0 0 24 24" fill="none" xmlns="http://www.w3.org/2000/svg">
<path d="M8.99793 10.7501C9.78308 10.7501 10.4196 10.1136 10.4196 9.32848C10.4196 8.54332 9.78308 7.90683 8.99793 7.90683C8.21278 7.90683 7.57629 8.54332 7.57629 9.32848C7.57629 10.1136 8.21278 10.7501 8.99793 10.7501Z" fill="black"/>
<path d="M16.4237 9.32848C16.4237 10.1136 15.7872 10.7501 15.0021 10.7501C14.2169 10.7501 13.5804 10.1136 13.5804 9.32848C13.5804 8.54332 14.2169 7.90683 15.0021 7.90683C15.7872 7.90683 16.4237 8.54332 16.4237 9.32848Z" fill="black"/>
<path d="M9.08888 13.9782C8.68203 13.6047 8.04945 13.6317 7.67595 14.0386C7.30246 14.4454 7.32949 15.078 7.73633 15.4515C8.11842 15.8023 9.60605 17.0268 11.9176 17.0906C12.0368 17.0939 12.1608 17.0942 12.2836 17.0906C14.4978 17.0256 15.9262 15.7813 16.2857 15.4339C16.6828 15.0502 16.6936 14.4171 16.3098 14.0199C15.926 13.6228 15.293 13.612 14.8958 13.9958C14.6846 14.1999 13.7107 15.0478 12.2249 15.0915C12.1435 15.0938 12.0576 15.0937 11.9728 15.0914C10.3512 15.0466 9.30753 14.1789 9.08888 13.9782Z" fill="black"/>
<path fill-rule="evenodd" clip-rule="evenodd" d="M22.0001 12C22.0001 17.5229 17.5229 22.0001 12 22.0001C6.47717 22.0001 2 17.5229 2 12C2 6.47716 6.47717 2 12 2C17.5229 2 22.0001 6.47716 22.0001 12ZM20.0001 12C20.0001 16.4183 16.4183 20.0001 12 20.0001C7.58174 20.0001 4 16.4183 4 12C4 7.58174 7.58174 4 12 4C16.4183 4 20.0001 7.58174 20.0001 12Z" fill="black"/>
</svg>

<svg xmlns="http://www.w3.org/2000/svg" width="24" height="24" fill="none" viewBox="0 0 24 24"><path fill="#000" fill-rule="evenodd" d="M22.0001 12c0 5.5229-4.4772 10.0001-10.0001 10.0001S2 17.5229 2 12 6.4772 2 12 2s10.0001 4.4772 10.0001 10m-2 0c0 4.4183-3.5818 8.0001-8.0001 8.0001S4 16.4183 4 12s3.5817-8 8-8 8.0001 3.5817 8.0001 8M8.9979 10.7501c.7852 0 1.4217-.6365 1.4217-1.4216s-.6365-1.4217-1.4217-1.4217-1.4216.6365-1.4216 1.4217.6365 1.4216 1.4216 1.4216m7.4258-1.4216c0 .7851-.6365 1.4216-1.4216 1.4216s-1.4217-.6365-1.4217-1.4216.6365-1.4217 1.4217-1.4217 1.4216.6365 1.4216 1.4217m-7.3348 4.6497c-.4069-.3735-1.0395-.3465-1.413.0604s-.3464 1.0394.0604 1.4129c.3821.3508 1.8697 1.5753 4.1813 1.6391.1192.0033.2432.0036.366 0 2.2142-.065 3.6426-1.3093 4.0021-1.6567.3971-.3837.4079-1.0168.0241-1.414s-1.0168-.4079-1.414-.0241c-.2112.2041-1.1851 1.052-2.6709 1.0957a4.6 4.6 0 0 1-.2521-.0001c-1.6216-.0448-2.6653-.9125-2.884-1.1132"/></svg>
